src/status/22/hexchat-highlight.svg

<svg width="22" height="22" viewBox="0 0 6.2089 6.2089" xmlns="http://www.w3.org/2000/svg">
 <path transform="scale(.28222)" d="m7.537 4a1 1 0 0 0-0.865 0.498l-3.467 6a1 1 0 0 0 0 1.004l3.467 6a1 1 0 0 0 0.865 0.498h6.928a1 1 0 0 0 0.863-0.498l3.469-6a1 1 0 0 0 0-1.004l-3.469-6a1 1 0 0 0-0.863-0.498h-6.928zm0.574 2h5.778l0.382 0.668-3.271 3.271-3.273-3.273 0.384-0.666zm-1.162 2.01 2.99 2.99-2.988 2.988-1.726-2.992 1.724-2.986zm8.101 0 1.718 2.99-1.718 2.988-2.99-2.988 2.99-2.99zm-4.05 4.05 3.273 3.274-0.384 0.666h-5.778l-0.384-0.666 3.273-3.274z" color-rendering="auto" fill="#88c0d0" image-rendering="auto" shape-rendering="auto" solid-color="#000000" isolation="auto" mix-blend-mode="normal" white-space="normal"/>
</svg>

<svg xmlns="http://www.w3.org/2000/svg" width="22" viewBox="0 0 6.208889 6.208889" height="22">
 <path d="M 7.537 4 A 1 1 0 0 0 6.672 4.498 L 3.205 10.498 A 1 1 0 0 0 3.205 11.502 L 6.672 17.502 A 1 1 0 0 0 7.537 18 L 14.465 18 A 1 1 0 0 0 15.328 17.502 L 18.797 11.502 A 1 1 0 0 0 18.797 10.498 L 15.328 4.498 A 1 1 0 0 0 14.465 4 L 7.537 4 z M 8.111 6 L 13.889 6 L 14.271 6.668 L 11 9.939 L 7.727 6.666 L 8.111 6 z M 6.949 8.01 L 9.939 11 L 6.951 13.988 L 5.225 10.996 L 6.949 8.01 z M 15.05 8.01 L 16.768 11 L 15.05 13.988 L 12.06 11 L 15.05 8.01 z M 11 12.06 L 14.273 15.334 L 13.889 16 L 8.111 16 L 7.727 15.334 L 11 12.06 z" transform="scale(0.28222222,0.28222222)" mix-blend-mode="normal" isolation="auto" white-space="normal" solid-opacity="1" solid-color="#000000" style="visibility:visible;shape-rendering:auto;color-interpolation-filters:linearRGB;fill:#88c0d0;opacity:1;image-rendering:auto;fill-opacity:1;stroke:none;display:inline;color:#000;fill-rule:nonzero;color-rendering:auto;color-interpolation:sRGB"/>
</svg>
